X: 834
T: White Joak
M:6/8
L:1/8
S: 8: MCJLSH3 http://www.cpartington.plus.com/links/Walsh.abc
Z: Pete Stewart 2004
B: Walsh "Third Book of the most Celebrated jiggs, Lancashire hornpipes, ..."
K:D
d2d fed | dcB A2G/F/ | B2B Bcd | A2F DEF | G3BAG | FGED3 ||
A2A ABc | defe3 | A2A ABc | def e2d/c/ | B2d A2d | G2d F>GA | B2B Bcd | A2F DEF | G3BAG | FGED3 ||

%%sep 1 1 500
%%sep 1 1 500
